X:232
T:Wee Todd
C:Joe Buchanan's Scottish Tome - Page 296.1
I:296 1
Z:Carl Allison
C:AKA Strip the Willow
R:Jig
L:1/8
M:6/8
K:A
"A"AAA FEE | "A"EAB fee | "A"cee fec | "Bm"BcB "A7"AFE | 
"F#m"AAA "E7"FEE | "F#m"EAB "E7"fee | "A"cec "E7"BcB | "A"A3 A2 :| 
"A"cee ece | "D"fee "A"cee | "D"f2 e f2 a | "D"f2 e "E7"cBc | 
"F#m"AAA "E7"FEE | "F#m"EAB "E7"fee | "A"cec "E7"BcB | "A"A3 A2 :| 

